!!!SOCIAL_FUNCTION:	dream songs
!!!PDT:	1932
!!!OTL: No_49_Song_of_the_Thunderers.krn
!!!REG: Wisconsin
!!!LANG: Non-Tone
!!!LING_GROUP: Algonquin
**kern
*staff1
=1-
=
*clefF4
*k[f#c#g#d#a#]
*M2/4
8c#\L
8c#\J
4c#\
=2
4c#\
8c#\L
8B\J
=3
2c#\
=4
2c#\
=5||
*M3/4
8B\L
8B\J
4B\
8A#\L
8G#\J
=6||
*M2/4
2F#\
=7
4F#\
4r
=8
8c#\L
8c#\J
4c#\
=9
4B\
8A#\L
8G#\J
=10
2B\
=11
2B\
=12||
*M3/4
8G#\L
8B\J
4B\
8A#\L
8G#\J
=13||
*M2/4
2F#\
=14
4F#\
4r
=15
8B\L
8B\J
4B\
=16
4G#\
8F#\L
8F#\J
=17
2F#\
=18
4F#\
4r
=19
8F#\L
8E\J
4D#\
=20
4C#/
8D#/L
8C#/J
=21
2BB/
=22
2BB/
=23||
*M3/4
8C#/L
8C#/J
4C#/
8C#/L
8BB/J
=24||
*M2/4
2C#/
=25
4C#/
4r
=26
8C#/L
8BB/J
4BB/
=27
4BB/
8GG#/L
8FF#/J
=28
2FF#/
=29
2FF#/
==:|!
*-
